!!!COM: Vivaldi, Antonio
**kern	**dynam	**kern	**dynam	**kern	**dynam	**kern	**dynam
*staff5	*staff5	*staff3	*staff3	*staff2	*staff2	*staff1	*staff1
=1-	=1-	=1-	=1-	=1-	=1-	=1-	=1-
*clefF4	*clefF4	*clefF4	*clefF4	*clefG2	*clefG2	*clefG2	*clefG2
*k[b-]	*k[b-]	*k[b-]	*k[b-]	*k[b-]	*k[b-]	*k[b-]	*k[b-]
*met(C)	*met(C)	*met(C)	*met(C)	*met(C)	*met(C)	*met(C)	*met(C)
*M4/4	*M4/4	*M4/4	*M4/4	*M4/4	*M4/4	*M4/4	*M4/4
4GG/	p	4GG/	pp	4b-\	pp	8dd\L	pp
.	.	.	.	.	.	8g\	.
8BB-/L	.	8BB-/L	.	8dd\L	.	8gg\	.
8C/J	.	8C/J	.	8ee-\J	.	8aa\J	.
4D\	.	4D\	.	8a/	.	4ff#\	.
.	.	.	.	4dd\	.	.	.
4E-\	.	4E-\	.	.	.	4gg\	.
.	.	.	.	8cc\	.	.	.
=2	=2	=2	=2	=2	=2	=2	=2
8D/L	.	8D/L	.	4ff#\	.	8aa\L	.
8C/	.	8C/	.	.	.	8dd\	.
8BB-/	.	8BB-/	.	8dd\L	.	8gg\	.
8AA/J	.	8AA/J	.	8ff#\J	.	8aa\J	.
2GG/	.	2GG/	.	4gg\	.	8bb-\L	.
.	.	.	.	.	.	8aa\J	.
.	.	.	.	[4dd\	.	4gg\	.
=3	=3	=3	=3	=3	=3	=3	=3
4G\	.	4G\	.	4dd\]	.	8bb-\L	.
.	.	.	.	.	.	8gg\	.
4A\	.	4A\	.	2cc\	.	8ff\	.
.	.	.	.	.	.	8ee-\J	.
4B-\	.	4B-\	.	.	.	8dd\L	.
.	.	.	.	.	.	8ff\	.
8D\L	.	8D\L	.	4b-\	.	8bb-\	.
8E-\J	.	8E-\J	.	.	.	8ee-\J	.
=4	=4	=4	=4	=4	=4	=4	=4
4F\	.	4F\	.	4b-\	.	4dd\	.
4FF/	.	4FF/	.	4a/	.	4cc\	.
2BB-/	.	2BB-/	.	2b-\	.	2b-\	.
=5:|!|:	=5:|!|:	=5:|!|:	=5:|!|:	=5:|!|:	=5:|!|:	=5:|!|:	=5:|!|:
2BBn/	pp	2BBn/	pp	4r	.	8dd\L	pp
.	.	.	.	.	.	8g\	.
.	.	.	.	4dd\	p	8gg\	.
.	.	.	.	.	.	8ff\J	.
2C/	.	2C/	.	2g/	.	8ee-\L	.
.	.	.	.	.	.	8dd\J	.
.	.	.	.	.	.	4cc\	.
=6	=6	=6	=6	=6	=6	=6	=6
2C/	.	2C/	.	4r	.	8een\L	.
.	.	.	.	.	.	8a\	.
.	.	.	.	4ee\	.	8aa\	.
.	.	.	.	.	.	8gg\J	.
2D\	.	2D\	.	2a/	.	8ff#\L	.
.	.	.	.	.	.	8ee\J	.
.	.	.	.	.	.	4dd\	.
=7	=7	=7	=7	=7	=7	=7	=7
4BB-/	.	4BB-/	.	4dd\	.	(8bb-\L	.
.	.	.	.	.	.	8gg\)	.
4C/	.	4C/	.	4ee-\	.	(8aa-\	.
.	.	.	.	.	.	8cc\J)	.
4D\	.	4D\	.	4an/	.	(8ff#\L	.
.	.	.	.	.	.	8dd\)	.
8r	.	8r	.	[4g/	.	(8gg\	.
8E-\	.	8E-\	.	.	.	8cc\J)	.
=8	=8	=8	=8	=8	=8	=8	=8
8D/L	.	8D/L	.	4g/]	.	4b-\	.
8C/	.	8C/	.	.	.	.	.
8D/	.	8D/	.	4f#/	.	4a/	.
8DD/J	.	8DD/J	.	.	.	.	.
2GG;/	.	2GG;/	.	2g;/	.	2g/	.
==:|!	==:|!	==:|!	==:|!	==:|!	==:|!	==:|!	==:|!
*-	*-	*-	*-	*-	*-	*-	*-
!!!ENC: Donald Anthony
!!!END: 2004/07//
!!!RWG: not proof-read
